X: 406
T:The Fern Glade
M:4/4
L:1/8
Q:q
C:Sean Kenan (28 Dec 1985) Australia
R:Reel
O:Australia
Z:Alex Burke Canberra 10/01/2001
K:G
"G"G3 B "D" AGFA | "C" G ~E3 "Em" B, ~E3 | "G" G ~B3 dBGF |"D" DFAF AcFA
 |
"G" GFGB "D" AGFA | "C" G ~E3 "Em" BGEB|"G"(3(GFE) B,A, "Em" B,EEF
|1"G" GBFG "C" E2 DF:||2 "G" GBFG "C" E2 GB| |
"Em" eBef "G" ~g2 fg |"Em"ebge "G" bgeg| "D" ~f3  a "G" gfdB | "C"cBcd "
D"A GA
 |=20
"G" B ~G3  "D" cAFA | "G" BGED "Em" B, ~E3 |"G"(3(GFE) B,A, "Em" B
,EEF| "G" GBFG "C" E2 GB :||

